fs/video_add_24_filled.svg

<svg viewBox="0 0 24 24" fill="none" xmlns="http://www.w3.org/2000/svg" height="1em" width="1em">
  <path d="M16 16.25C16 18.0449 14.5449 19.5 12.75 19.5H12.6865C12.89 18.8699 13 18.1978 13 17.5C13 13.9101 10.0899 11 6.5 11C4.75351 11 3.16789 11.6888 2 12.8096V7.75C2 5.95507 3.45507 4.5 5.25 4.5H12.75C14.5449 4.5 16 5.95507 16 7.75V16.25ZM21.762 5.89334C21.9156 6.07414 22 6.30368 22 6.54096V17.4588C22 18.0111 21.5523 18.4588 21 18.4588C20.7627 18.4588 20.5332 18.3744 20.3524 18.2208L17 15.3709V8.62794L20.3524 5.77899C20.7732 5.42132 21.4043 5.47252 21.762 5.89334ZM12 17.5C12 14.4624 9.53757 12 6.5 12C3.46243 12 1 14.4624 1 17.5C1 20.5376 3.46243 23 6.5 23C9.53757 23 12 20.5376 12 17.5ZM7.00065 18L7.00111 20.5035C7.00111 20.7797 6.77725 21.0035 6.50111 21.0035C6.22497 21.0035 6.00111 20.7797 6.00111 20.5035L6.00065 18H3.4956C3.21973 18 2.99609 17.7762 2.99609 17.5C2.99609 17.2239 3.21973 17 3.4956 17H6.00046L6 14.4993C6 14.2231 6.22386 13.9993 6.5 13.9993C6.77614 13.9993 7 14.2231 7 14.4993L7.00046 17H9.49659C9.77246 17 9.99609 17.2239 9.99609 17.5C9.99609 17.7762 9.77246 18 9.49659 18H7.00065Z" fill="#212121"/>
</svg>

<svg viewBox="0 0 24 24" fill="none" xmlns="http://www.w3.org/2000/svg" height="1em" width="1em">
  <path d="M16 16.25a3.25 3.25 0 0 1-3.25 3.25h-.063A6.5 6.5 0 0 0 2 12.81V7.75A3.25 3.25 0 0 1 5.25 4.5h7.5A3.25 3.25 0 0 1 16 7.75v8.5Zm5.762-10.357a1 1 0 0 1 .238.648v10.918a1 1 0 0 1-1.648.762L17 15.37V8.628l3.352-2.849a1 1 0 0 1 1.41.114ZM12 17.5a5.5 5.5 0 1 0-11 0 5.5 5.5 0 0 0 11 0ZM7 18l.001 2.503a.5.5 0 1 1-1 0V18H3.496a.5.5 0 0 1 0-1H6v-2.5a.5.5 0 1 1 1 0V17h2.497a.5.5 0 0 1 0 1H7Z" fill="#212121"/>
</svg>
